X:190
T: Amei jinri ba lu shang
N: C1682
O: China,Jiangxi, Ganxian
S: IV, 244]
R: Xiaodiao, Chage, Shuzhuang]
M: 2/4
L: 1/16
K: C
E2e2d2Ac | dcd6 | d2g2e2z2 | E2e2dcA2 | cAG6 |
c2AGEGE2 | d3ge4 | d3ge4 | dedcAcGA | cAd6 |
E2e2d2A2 | cAG4Ac | AGEGE4 |
E2e2d2Ac | dcd4Ac | GAcAc4 | AcG2A2d2 | c2A2c4

@@@ Tune index: 6745
